app/assets/icon_foreground.svg

<?xml version="1.0" encoding="UTF-8" standalone="no"?>
<svg
   width="32"
   height="32"
   fill="#000000"
   viewBox="0 0 256 256"
   version="1.1"
   id="svg1"
   sodipodi:docname="icon_foreground.svg"
   inkscape:version="1.4.3 (0d15f75, 2025-12-25)"
   xmlns:inkscape="http://www.inkscape.org/namespaces/inkscape"
   xmlns:sodipodi="http://sodipodi.sourceforge.net/DTD/sodipodi-0.dtd"
   xmlns="http://www.w3.org/2000/svg"
   xmlns:svg="http://www.w3.org/2000/svg">
  <defs
     id="defs1">
    <filter
       inkscape:collect="always"
       style="color-interpolation-filters:sRGB"
       id="filter2"
       x="-0.040691779"
       y="-0.055485431"
       width="1.0813836"
       height="1.1109709">
      <feGaussianBlur
         inkscape:collect="always"
         stdDeviation="2.6826802"
         id="feGaussianBlur2" />
    </filter>
    <filter
       inkscape:collect="always"
       style="color-interpolation-filters:sRGB"
       id="filter4"
       x="-0.014749037"
       y="-0.019368852"
       width="1.0294981"
       height="1.0387377">
      <feGaussianBlur
         inkscape:collect="always"
         stdDeviation="0.92973035"
         id="feGaussianBlur4" />
    </filter>
    <filter
       inkscape:collect="always"
       style="color-interpolation-filters:sRGB"
       id="filter5"
       x="-0.026162236"
       y="-0.036468342"
       width="1.0523245"
       height="1.0729367">
      <feGaussianBlur
         inkscape:collect="always"
         stdDeviation="1.6273048"
         id="feGaussianBlur5" />
    </filter>
  </defs>
  <sodipodi:namedview
     id="namedview1"
     pagecolor="#505050"
     bordercolor="#ffffff"
     borderopacity="1"
     inkscape:showpageshadow="0"
     inkscape:pageopacity="0"
     inkscape:pagecheckerboard="1"
     inkscape:deskcolor="#505050"
     inkscape:zoom="29.633886"
     inkscape:cx="9.9548201"
     inkscape:cy="10.511615"
     inkscape:window-width="3008"
     inkscape:window-height="1634"
     inkscape:window-x="1470"
     inkscape:window-y="30"
     inkscape:window-maximized="1"
     inkscape:current-layer="svg1" />
  <path
     d="m 193.68901,185.77977 a 5.2744653,5.2744653 0 0 1 -5.27447,5.27448 H 93.474168 a 5.27447,5.27447 0 1 1 0,-10.54894 h 94.940372 a 5.2744653,5.2744653 0 0 1 5.27447,5.27446 z m 15.82339,-52.74465 v 15.82339 a 5.2744653,5.2744653 0 0 1 -5.27446,5.27447 H 86.26793 A 26.2075,26.2075 0 0 1 61.009834,135.33611 L 51.733368,104.42114 A 10.548931,10.548931 0 0 1 61.827376,90.839403 h 5.274466 a 5.2744653,5.2744653 0 0 1 3.725091,1.54278 L 85.114141,106.66279 H 99.941982 L 94.008208,88.901033 a 10.548931,10.548931 0 0 1 10.014882,-13.88503 h 5.27447 a 5.2744653,5.2744653 0 0 1 3.73168,1.542781 l 30.10401,30.104006 h 40.00682 a 26.372327,26.372327 0 0 1 26.37233,26.37233 z m -10.54894,0 a 15.823396,15.823396 0 0 0 -15.82339,-15.8234 h -42.19571 a 5.2744653,5.2744653 0 0 1 -3.72511,-1.54277 l -30.104,-30.104017 h -3.09216 l 8.23476,24.704277 a 5.2744653,5.2744653 0 0 1 -4.99755,6.94251 H 82.925238 a 5.2744653,5.2744653 0 0 1 -3.731684,-1.54277 L 64.919531,101.38832 h -3.092155 l 9.276466,30.92155 a 15.7245,15.7245 0 0 0 15.164088,11.27418 h 112.69553 z"
     id="path2"
     style="fill:#333333;fill-opacity:1;stroke-width:0.659309;filter:url(#filter2)"
     transform="matrix(0.86115481,0,0,0.86115481,18.105441,18.471287)" />
  <path
     d="m 182.83472,176.39148 a 4.5421312,4.5421312 0 0 1 -4.54214,4.54215 H 96.534223 a 4.5421352,4.5421352 0 1 1 0,-9.08427 h 81.758357 a 4.5421312,4.5421312 0 0 1 4.54214,4.54212 z m 13.62639,-45.42131 v 13.62639 a 4.5421312,4.5421312 0 0 1 -4.54213,4.54214 H 90.328536 a 22.568715,22.568715 0 0 1 -21.75113,-16.18702 l -7.988474,-26.62257 a 9.0842627,9.0842627 0 0 1 8.692504,-11.695986 h 4.542132 a 4.5421312,4.5421312 0 0 1 3.20788,1.328573 L 89.334946,108.25952 H 102.10401 L 96.994114,92.963891 A 9.0842627,9.0842627 0 0 1 105.61848,81.00673 h 4.54214 a 4.5421312,4.5421312 0 0 1 3.21355,1.328574 l 25.92421,25.924216 h 34.45207 a 22.710656,22.710656 0 0 1 22.71066,22.71065 z m -9.08427,0 a 13.626394,13.626394 0 0 0 -13.62639,-13.62639 h -36.33704 a 4.5421312,4.5421312 0 0 1 -3.2079,-1.32857 l -25.9242,-25.924218 h -2.66283 l 7.0914,21.274208 a 4.5421312,4.5421312 0 0 1 -4.30366,5.97858 H 87.449961 a 4.5421312,4.5421312 0 0 1 -3.213557,-1.32857 L 71.94426,103.71738 h -2.662824 l 7.988473,26.62824 a 13.541229,13.541229 0 0 0 13.058627,9.70882 h 97.048304 z"
     id="path1"
     style="fill:#6891fa;fill-opacity:1;stroke-width:0.567767" />
  <path
     id="path3"
     style="opacity:0.697802;fill:#18cad3;fill-opacity:1;stroke-width:0.659309;filter:url(#filter4)"
     d="M 101.625,72.625 A 10.548931,10.548931 0 0 0 91.609375,86.5 l 5.9375,17.76562 H 82.71875 l 1.59375,1.59376 h 14.828125 l -5.9375,-17.76563 a 10.548931,10.548931 0 0 1 10.015625,-13.875 H 108.5 a 5.2744653,5.2744653 0 0 1 3.64062,1.453125 L 110.625,74.15625 A 5.2744653,5.2744653 0 0 0 106.89062,72.625 Z M 59.421875,88.4375 a 10.548931,10.548931 0 0 0 -10.09375,13.57812 l 9.28125,30.92188 a 26.2075,26.2075 0 0 0 7.5625,11.98438 26.2075,26.2075 0 0 1 -5.96875,-10.39063 L 50.9375,103.625 A 10.548931,10.548931 0 0 1 61.03125,90.046875 h 5.265625 A 5.2744653,5.2744653 0 0 1 69.875,91.4375 L 68.421875,89.984375 A 5.2744653,5.2744653 0 0 0 64.703125,88.4375 Z m 81.312505,15.82812 1.59374,1.59376 h 40.01563 a 26.372327,26.372327 0 0 1 17.82813,7.01562 26.372327,26.372327 0 0 0 -19.4375,-8.60938 z m 51.95312,16.04688 a 15.823396,15.823396 0 0 1 3.875,10.32812 V 141.1875 H 83.875 a 15.7245,15.7245 0 0 1 -10.4375,-3.92188 15.7245,15.7245 0 0 0 12.03125,5.51563 h 112.6875 V 132.23438 A 15.823396,15.823396 0 0 0 192.6875,120.3125 Z M 91.078125,178.10938 a 5.27447,5.27447 0 0 0 -2.828125,9.71874 5.27447,5.27447 0 0 1 4.421875,-8.125 h 94.937505 a 5.2744653,5.2744653 0 0 1 2.82812,0.82813 5.2744653,5.2744653 0 0 0 -4.42188,-2.42187 z"
     transform="matrix(0.86115481,0,0,0.86115481,18.105441,18.471287)" />
  <path
     id="path5"
     style="opacity:0.604396;fill:#610093;fill-opacity:1;stroke-width:0.659309;filter:url(#filter5)"
     d="m 100.01562,81.5625 8.25,24.70312 a 5.2744653,5.2744653 0 0 1 -5,6.95313 H 78.921875 a 5.2744653,5.2744653 0 0 1 -3.625,-1.45313 l 1.5,1.5 a 5.2744653,5.2744653 0 0 0 3.734375,1.54688 h 24.32813 a 5.2744653,5.2744653 0 0 0 5,-6.9375 L 101.625,83.171875 h 3.09375 L 103.10938,81.5625 Z m -42.187495,15.828125 9.28125,30.921875 a 15.7245,15.7245 0 0 0 4.828125,7.4375 15.7245,15.7245 0 0 1 -3.234375,-5.84375 l -9.28125,-30.921875 h 3.09375 l -1.59375,-1.59375 z M 198.5,111.20312 a 26.372327,26.372327 0 0 1 7.01562,17.82813 v 15.82813 a 5.2744653,5.2744653 0 0 1 -5.28124,5.28124 H 82.265625 a 26.2075,26.2075 0 0 1 -17.6875,-6.82812 26.2075,26.2075 0 0 0 19.296875,8.42188 h 117.96875 a 5.2744653,5.2744653 0 0 0 5.26563,-5.28126 v -15.8125 A 26.372327,26.372327 0 0 0 198.5,111.20312 Z m -65.28125,0.46876 1.59375,1.59374 a 5.2744653,5.2744653 0 0 0 3.73438,1.54688 h 42.1875 a 15.823396,15.823396 0 0 1 10.32812,3.875 15.823396,15.823396 0 0 0 -11.92188,-5.46875 H 136.9375 a 5.2744653,5.2744653 0 0 1 -3.71875,-1.54687 z m 55.64063,67.28124 a 5.2744653,5.2744653 0 0 1 0.82812,2.82813 5.2744653,5.2744653 0 0 1 -5.26562,5.26563 H 89.46875 a 5.27447,5.27447 0 0 1 -2.828125,-0.82813 5.27447,5.27447 0 0 0 4.4375,2.4375 h 94.937495 a 5.2744653,5.2744653 0 0 0 5.26563,-5.28125 5.2744653,5.2744653 0 0 0 -2.42187,-4.42188 z"
     transform="matrix(0.86115481,0,0,0.86115481,18.105441,18.471287)" />
</svg>

<?xml version="1.0" encoding="UTF-8" standalone="no"?>
<svg
   width="32"
   height="32"
   fill="#000000"
   viewBox="0 0 256 256"
   version="1.1"
   id="svg1"
   sodipodi:docname="icon_foreground.svg"
   inkscape:version="1.4.3 (0d15f75, 2025-12-25)"
   xmlns:inkscape="http://www.inkscape.org/namespaces/inkscape"
   xmlns:sodipodi="http://sodipodi.sourceforge.net/DTD/sodipodi-0.dtd"
   xmlns="http://www.w3.org/2000/svg"
   xmlns:svg="http://www.w3.org/2000/svg">
  <defs
     id="defs1">
    <filter
       inkscape:collect="always"
       style="color-interpolation-filters:sRGB"
       id="filter2"
       x="-0.040691779"
       y="-0.055485431"
       width="1.0813836"
       height="1.1109709">
      <feGaussianBlur
         inkscape:collect="always"
         stdDeviation="2.6826802"
         id="feGaussianBlur2" />
    </filter>
    <filter
       inkscape:collect="always"
       style="color-interpolation-filters:sRGB"
       id="filter4"
       x="-0.014749037"
       y="-0.019368852"
       width="1.0294981"
       height="1.0387377">
      <feGaussianBlur
         inkscape:collect="always"
         stdDeviation="0.92973035"
         id="feGaussianBlur4" />
    </filter>
    <filter
       inkscape:collect="always"
       style="color-interpolation-filters:sRGB"
       id="filter5"
       x="-0.026162236"
       y="-0.036468342"
       width="1.0523245"
       height="1.0729367">
      <feGaussianBlur
         inkscape:collect="always"
         stdDeviation="1.6273048"
         id="feGaussianBlur5" />
    </filter>
  </defs>
  <sodipodi:namedview
     id="namedview1"
     pagecolor="#505050"
     bordercolor="#ffffff"
     borderopacity="1"
     inkscape:showpageshadow="0"
     inkscape:pageopacity="0"
     inkscape:pagecheckerboard="1"
     inkscape:deskcolor="#505050"
     inkscape:zoom="44.21875"
     inkscape:cx="16"
     inkscape:cy="16"
     inkscape:window-width="3008"
     inkscape:window-height="1634"
     inkscape:window-x="1470"
     inkscape:window-y="30"
     inkscape:window-maximized="1"
     inkscape:current-layer="svg1" />
  <path
     d="m 193.68901,185.77977 a 5.2744653,5.2744653 0 0 1 -5.27447,5.27448 H 93.474168 a 5.27447,5.27447 0 1 1 0,-10.54894 h 94.940372 a 5.2744653,5.2744653 0 0 1 5.27447,5.27446 z m 15.82339,-52.74465 v 15.82339 a 5.2744653,5.2744653 0 0 1 -5.27446,5.27447 H 86.26793 A 26.2075,26.2075 0 0 1 61.009834,135.33611 L 51.733368,104.42114 A 10.548931,10.548931 0 0 1 61.827376,90.839403 h 5.274466 a 5.2744653,5.2744653 0 0 1 3.725091,1.54278 L 85.114141,106.66279 H 99.941982 L 94.008208,88.901033 a 10.548931,10.548931 0 0 1 10.014882,-13.88503 h 5.27447 a 5.2744653,5.2744653 0 0 1 3.73168,1.542781 l 30.10401,30.104006 h 40.00682 a 26.372327,26.372327 0 0 1 26.37233,26.37233 z m -10.54894,0 a 15.823396,15.823396 0 0 0 -15.82339,-15.8234 h -42.19571 a 5.2744653,5.2744653 0 0 1 -3.72511,-1.54277 l -30.104,-30.104017 h -3.09216 l 8.23476,24.704277 a 5.2744653,5.2744653 0 0 1 -4.99755,6.94251 H 82.925238 a 5.2744653,5.2744653 0 0 1 -3.731684,-1.54277 L 64.919531,101.38832 h -3.092155 l 9.276466,30.92155 a 15.7245,15.7245 0 0 0 15.164088,11.27418 h 112.69553 z"
     id="path2"
     style="fill:#333333;fill-opacity:1;stroke-width:0.659309;filter:url(#filter2)" />
  <path
     d="m 191.28881,183.38189 a 5.2744653,5.2744653 0 0 1 -5.27447,5.27448 H 91.073964 a 5.27447,5.27447 0 1 1 0,-10.54894 h 94.940376 a 5.2744653,5.2744653 0 0 1 5.27447,5.27446 z m 15.82339,-52.74465 v 15.82339 a 5.2744653,5.2744653 0 0 1 -5.27446,5.27447 H 83.867726 A 26.2075,26.2075 0 0 1 58.60963,132.93823 L 49.333164,102.02326 A 10.548931,10.548931 0 0 1 59.427172,88.441516 h 5.274466 a 5.2744653,5.2744653 0 0 1 3.725091,1.542781 L 82.713937,104.26491 H 97.541778 L 91.608004,86.50315 A 10.548931,10.548931 0 0 1 101.62289,72.61812 h 5.27447 a 5.2744653,5.2744653 0 0 1 3.73168,1.542781 l 30.10401,30.104009 h 40.00682 a 26.372327,26.372327 0 0 1 26.37233,26.37233 z m -10.54894,0 a 15.823396,15.823396 0 0 0 -15.82339,-15.8234 h -42.19571 a 5.2744653,5.2744653 0 0 1 -3.72511,-1.54277 l -30.104,-30.10402 h -3.09216 l 8.23476,24.70428 a 5.2744653,5.2744653 0 0 1 -4.99755,6.94251 H 80.525034 A 5.2744653,5.2744653 0 0 1 76.79335,113.27107 L 62.519327,98.990439 h -3.092155 l 9.276466,30.921551 a 15.7245,15.7245 0 0 0 15.164088,11.27418 H 196.56326 Z"
     id="path1"
     style="fill:#6891fa;fill-opacity:1;stroke-width:0.659309" />
  <path
     id="path3"
     style="fill:#18cad3;fill-opacity:1;stroke-width:0.659309;filter:url(#filter4);opacity:0.6978022"
     d="M 101.625 72.625 A 10.548931 10.548931 0 0 0 91.609375 86.5 L 97.546875 104.26562 L 82.71875 104.26562 L 84.3125 105.85938 L 99.140625 105.85938 L 93.203125 88.09375 A 10.548931 10.548931 0 0 1 103.21875 74.21875 L 108.5 74.21875 A 5.2744653 5.2744653 0 0 1 112.14062 75.671875 L 110.625 74.15625 A 5.2744653 5.2744653 0 0 0 106.89062 72.625 L 101.625 72.625 z M 59.421875 88.4375 A 10.548931 10.548931 0 0 0 49.328125 102.01562 L 58.609375 132.9375 A 26.2075 26.2075 0 0 0 66.171875 144.92188 A 26.2075 26.2075 0 0 1 60.203125 134.53125 L 50.9375 103.625 A 10.548931 10.548931 0 0 1 61.03125 90.046875 L 66.296875 90.046875 A 5.2744653 5.2744653 0 0 1 69.875 91.4375 L 68.421875 89.984375 A 5.2744653 5.2744653 0 0 0 64.703125 88.4375 L 59.421875 88.4375 z M 140.73438 104.26562 L 142.32812 105.85938 L 182.34375 105.85938 A 26.372327 26.372327 0 0 1 200.17188 112.875 A 26.372327 26.372327 0 0 0 180.73438 104.26562 L 140.73438 104.26562 z M 192.6875 120.3125 A 15.823396 15.823396 0 0 1 196.5625 130.64062 L 196.5625 141.1875 L 83.875 141.1875 A 15.7245 15.7245 0 0 1 73.4375 137.26562 A 15.7245 15.7245 0 0 0 85.46875 142.78125 L 198.15625 142.78125 L 198.15625 132.23438 A 15.823396 15.823396 0 0 0 192.6875 120.3125 z M 91.078125 178.10938 A 5.27447 5.27447 0 0 0 88.25 187.82812 A 5.27447 5.27447 0 0 1 92.671875 179.70312 L 187.60938 179.70312 A 5.2744653 5.2744653 0 0 1 190.4375 180.53125 A 5.2744653 5.2744653 0 0 0 186.01562 178.10938 L 91.078125 178.10938 z " />
  <path
     id="path5"
     style="fill:#610093;fill-opacity:1;stroke-width:0.659309;filter:url(#filter5);opacity:0.6043956"
     d="M 100.01562 81.5625 L 108.26562 106.26562 A 5.2744653 5.2744653 0 0 1 103.26562 113.21875 L 78.921875 113.21875 A 5.2744653 5.2744653 0 0 1 75.296875 111.76562 L 76.796875 113.26562 A 5.2744653 5.2744653 0 0 0 80.53125 114.8125 L 104.85938 114.8125 A 5.2744653 5.2744653 0 0 0 109.85938 107.875 L 101.625 83.171875 L 104.71875 83.171875 L 103.10938 81.5625 L 100.01562 81.5625 z M 57.828125 97.390625 L 67.109375 128.3125 A 15.7245 15.7245 0 0 0 71.9375 135.75 A 15.7245 15.7245 0 0 1 68.703125 129.90625 L 59.421875 98.984375 L 62.515625 98.984375 L 60.921875 97.390625 L 57.828125 97.390625 z M 198.5 111.20312 A 26.372327 26.372327 0 0 1 205.51562 129.03125 L 205.51562 144.85938 A 5.2744653 5.2744653 0 0 1 200.23438 150.14062 L 82.265625 150.14062 A 26.2075 26.2075 0 0 1 64.578125 143.3125 A 26.2075 26.2075 0 0 0 83.875 151.73438 L 201.84375 151.73438 A 5.2744653 5.2744653 0 0 0 207.10938 146.45312 L 207.10938 130.64062 A 26.372327 26.372327 0 0 0 198.5 111.20312 z M 133.21875 111.67188 L 134.8125 113.26562 A 5.2744653 5.2744653 0 0 0 138.54688 114.8125 L 180.73438 114.8125 A 15.823396 15.823396 0 0 1 191.0625 118.6875 A 15.823396 15.823396 0 0 0 179.14062 113.21875 L 136.9375 113.21875 A 5.2744653 5.2744653 0 0 1 133.21875 111.67188 z M 188.85938 178.95312 A 5.2744653 5.2744653 0 0 1 189.6875 181.78125 A 5.2744653 5.2744653 0 0 1 184.42188 187.04688 L 89.46875 187.04688 A 5.27447 5.27447 0 0 1 86.640625 186.21875 A 5.27447 5.27447 0 0 0 91.078125 188.65625 L 186.01562 188.65625 A 5.2744653 5.2744653 0 0 0 191.28125 183.375 A 5.2744653 5.2744653 0 0 0 188.85938 178.95312 z " />
</svg>
